X: 1727
T: Humphrey's Hornpipe
R: hornpipe, reel
%S: s:2 b:12(6+6)
B: O'Neill's 1850 #1727
Z: Bob Safranek, rjs@gsp.org
Z: A. LEE WORMAN
M: C|
L: 1/8
K: A
|:\
A2c>A e>Af>A | e>Af>A e>cB>c |\
[1,3 A2c>A e>Af>A | e>cB>c A>FF>E :|\
[2,4 A>BA>F E>cd>f | ecdB c>AA2 :|
|:\
A2c>e a2a>f | e>fe>d c>dB>c |\
[1,3 A2c>e a2a>g | g>bb>a b>ab>c' :|\
[2,4 A>BA>F E>cd>f | e>cd>B c>AA2 :|
